src/assets/icons/ico_joinery.svg

<?xml version="1.0" encoding="utf-8"?>
<!-- Generator: Adobe Illustrator 26.0.1, SVG Export Plug-In . SVG Version: 6.00 Build 0)  -->
<svg version="1.1" id="Layer_1" xmlns="http://www.w3.org/2000/svg" xmlns:xlink="http://www.w3.org/1999/xlink" x="0px" y="0px"
	 viewBox="0 0 64 64" style="enable-background:new 0 0 64 64;" xml:space="preserve">
<style type="text/css">
	.st0{fill:#43BBC4;}
</style>
<path class="st0" d="M52.2822,23.7109h-4.623v-9.1899l3.5918-2.5113c0.6768-0.4736,0.8418-1.4102,0.3682-2.0889
	c-0.4736-0.6768-1.4121-0.8398-2.0879-0.3691l-37.6641,26.334c-0.6768,0.4736-0.8418,1.4102-0.3691,2.0879
	c0.2803,0.4014,0.7402,0.6406,1.2305,0.6406c0.3076,0,0.6045-0.0938,0.8584-0.2705l1.8721-1.3089v7.5071h-2.6162
	c-0.8965,0-1.625,0.7285-1.625,1.625s0.7285,1.625,1.625,1.625h0.3633v6.4268c0,0.2764,0.2236,0.5,0.5,0.5h38.5762
	c0.2764,0,0.5-0.2236,0.5-0.5V26.4609v-2.25C52.7822,23.9346,52.5586,23.7109,52.2822,23.7109z M51.7822,25.9609h-9.9512
	c-0.3447,0-0.625-0.2803-0.625-0.625s0.2803-0.625,0.625-0.625h9.9512V25.9609z M32.4785,37.5967h-5.5498v-8.5812l9.3799-6.5582
	v8.199h-4.1621c-0.8965,0-1.625,0.7285-1.625,1.625s0.7285,1.625,1.625,1.625h0.332V37.5967z M22.5273,39.8467
	c-0.3447,0-0.625-0.2803-0.625-0.625s0.2803-0.625,0.625-0.625h3.8771c0.0085,0.0004,0.0156,0.0049,0.0242,0.0049
	s0.0157-0.0045,0.0242-0.0049h6.0256v1.25H22.5273z M32.1465,32.9062c-0.3447,0-0.625-0.2803-0.625-0.625s0.2803-0.625,0.625-0.625
	h9.9512v1.25H32.1465z M46.6592,23.7109h-4.8281c-0.8965,0-1.625,0.7285-1.625,1.625s0.7285,1.625,1.625,1.625h0.2617v3.6953
	h-4.7842V21.758l9.3506-6.5377V23.7109z M13.0146,37.5234c-0.2217,0.1543-0.5459,0.0938-0.6963-0.1221
	c-0.1582-0.2266-0.1035-0.5391,0.1221-0.6963l37.6631-26.333c0.0879-0.0615,0.1875-0.0908,0.2861-0.0908
	c0.1582,0,0.3135,0.0742,0.4102,0.2129c0.1582,0.2266,0.1035,0.5391-0.1221,0.6963L13.0146,37.5234z M16.459,36.3356l9.4697-6.621
	v7.8821h-3.4014c-0.8965,0-1.625,0.7285-1.625,1.625s0.7285,1.625,1.625,1.625h0.2617v3.6953H16.459V36.3356z M12.2178,46.167
	c0-0.3447,0.2803-0.625,0.625-0.625h9.9512v1.25h-9.9512C12.498,46.792,12.2178,46.5117,12.2178,46.167z M14.2061,53.7188V47.792
	h9.0879c0.2764,0,0.5-0.2236,0.5-0.5v-2.25c0-0.0086-0.0045-0.0157-0.0049-0.0242v-4.1711h9.1895c0.2764,0,0.5-0.2236,0.5-0.5v-2.25
	v-4.1904h9.1191c0.2764,0,0.5-0.2236,0.5-0.5v-2.25c0-0.0086-0.0045-0.0157-0.0049-0.0242v-4.1711h8.6895v26.7578H14.2061z"/>
</svg>

<?xml version="1.0" encoding="UTF-8" standalone="no"?>
<!DOCTYPE svg PUBLIC "-//W3C//DTD SVG 1.1//EN" "http://www.w3.org/Graphics/SVG/1.1/DTD/svg11.dtd">
<svg width="100%" height="100%" viewBox="0 0 65 65" version="1.1" xmlns="http://www.w3.org/2000/svg" xmlns:xlink="http://www.w3.org/1999/xlink" xml:space="preserve" xmlns:serif="http://www.serif.com/" style="fill-rule:evenodd;clip-rule:evenodd;stroke-linejoin:round;stroke-miterlimit:2;">
    <g transform="matrix(1,0,0,1,-146,-244)">
        <g transform="matrix(0.0625,0,0,0.0833333,146.422,244.05)">
            <rect id="ico_joinery" x="0" y="0" width="1024" height="768" style="fill:none;"/>
            <g id="ico_joinery1" serif:id="ico_joinery">
                <g id="ico_joinery.svg" transform="matrix(16,0,0,12,512,384)">
                    <g transform="matrix(1,0,0,1,-32,-32)">
                        <path d="M52.282,23.711L47.659,23.711L47.659,14.521L51.251,12.01C51.928,11.536 52.093,10.599 51.619,9.921C51.146,9.244 50.207,9.081 49.531,9.552L11.867,35.886C11.19,36.359 11.025,37.296 11.498,37.974C11.778,38.375 12.238,38.614 12.729,38.614C13.036,38.614 13.333,38.52 13.587,38.344L15.459,37.035L15.459,44.542L12.843,44.542C11.946,44.542 11.218,45.27 11.218,46.167C11.218,47.063 11.946,47.792 12.843,47.792L13.206,47.792L13.206,54.219C13.206,54.495 13.43,54.719 13.706,54.719L52.282,54.719C52.559,54.719 52.782,54.495 52.782,54.219L52.782,24.211C52.782,23.935 52.559,23.711 52.282,23.711ZM51.782,25.961L41.831,25.961C41.486,25.961 41.206,25.681 41.206,25.336C41.206,24.991 41.486,24.711 41.831,24.711L51.782,24.711L51.782,25.961ZM32.478,37.597L26.929,37.597L26.929,29.015L36.309,22.457L36.309,30.656L32.146,30.656C31.25,30.656 30.521,31.385 30.521,32.281C30.521,33.178 31.25,33.906 32.146,33.906L32.478,33.906L32.478,37.597ZM22.527,39.847C22.183,39.847 21.902,39.566 21.902,39.222C21.902,38.877 22.183,38.597 22.527,38.597L26.404,38.597C26.413,38.597 26.42,38.602 26.429,38.602C26.437,38.602 26.444,38.597 26.453,38.597L32.478,38.597L32.478,39.847L22.527,39.847ZM32.147,32.906C31.802,32.906 31.522,32.626 31.522,32.281C31.522,31.936 31.802,31.656 32.147,31.656L42.098,31.656L42.098,32.906L32.147,32.906ZM46.659,23.711L41.831,23.711C40.935,23.711 40.206,24.439 40.206,25.336C40.206,26.232 40.935,26.961 41.831,26.961L42.093,26.961L42.093,30.656L37.309,30.656L37.309,21.758L46.659,15.22L46.659,23.711ZM13.015,37.523C12.793,37.678 12.469,37.617 12.318,37.401C12.16,37.175 12.215,36.862 12.44,36.705L50.103,10.372C50.191,10.311 50.291,10.281 50.39,10.281C50.548,10.281 50.703,10.355 50.8,10.494C50.958,10.721 50.903,11.033 50.678,11.19L13.015,37.523ZM16.459,36.336L25.929,29.715L25.929,37.597L22.527,37.597C21.631,37.597 20.902,38.325 20.902,39.222C20.902,40.118 21.631,40.847 22.527,40.847L22.789,40.847L22.789,44.542L16.459,44.542L16.459,36.336ZM12.218,46.167C12.218,45.822 12.498,45.542 12.843,45.542L22.794,45.542L22.794,46.792L12.843,46.792C12.498,46.792 12.218,46.512 12.218,46.167ZM14.206,53.719L14.206,47.792L23.294,47.792C23.57,47.792 23.794,47.568 23.794,47.292L23.794,45.042C23.794,45.033 23.789,45.026 23.789,45.018L23.789,40.847L32.979,40.847C33.255,40.847 33.479,40.623 33.479,40.347L33.479,33.906L42.598,33.906C42.874,33.906 43.098,33.683 43.098,33.406L43.098,31.156C43.098,31.148 43.093,31.141 43.093,31.132L43.093,26.961L51.782,26.961L51.782,53.719L14.206,53.719Z" style="fill:rgb(26,91,87);fill-rule:nonzero;"/>
                    </g>
                </g>
            </g>
        </g>
    </g>
</svg>
